svgs/2639.svg

<svg xmlns="http://www.w3.org/2000/svg" xmlns:xlink="http://www.w3.org/1999/xlink" preserveAspectRatio="none" viewBox="0 0 72 72"><defs><path id="a" fill="#FCC21B" d="M127.7 93.35q0-27-8.5-47.05Q103.6 9.65 63.9 9.65q-39.65 0-55.25 36.65Q.1 66.4.1 93.35q0 10.4 18.7 17.7 18.65 7.35 45.1 7.35 26.45 0 45.1-7.35 18.7-7.3 18.7-17.7z"/><path id="b" fill="#2F2F2F" d="M94.05 97.1Q91.3 87.95 82.8 82.05q-8.5-5.95-18.85-5.95-10.3 0-18.8 5.95-8.5 5.9-11.25 15.05-.35 1.3.25 2.45.65 1.2 1.9 1.6 1.3.4 2.5-.25t1.55-1.95q2.15-7.1 8.9-11.75 6.75-4.6 14.95-4.6 8.25 0 15 4.6 6.75 4.65 8.9 11.75.3 1.05 1.2 1.7.85.6 1.9.6l.95-.1q1.3-.4 1.9-1.6.65-1.15.25-2.45z"/><path id="c" fill="#2F2F2F" d="M36.05 51.5q-2.35 2.9-2.3 6.9.05 4 2.45 6.85 2.45 2.8 5.8 2.75 3.35 0 5.7-2.85 2.35-2.9 2.3-6.9-.05-4-2.45-6.85-2.4-2.85-5.75-2.8-3.35.05-5.75 2.9z"/><path id="d" fill="#2F2F2F" d="M94.2 58.3q-.05-4-2.4-6.85-2.4-2.85-5.75-2.8-3.35 0-5.75 2.85t-2.4 6.85q.05 4 2.45 6.85 2.4 2.85 5.75 2.8 3.35 0 5.7-2.85 2.4-2.85 2.4-6.85z"/></defs><use transform="scale(.5625)" xlink:href="#a"/><use transform="translate(0 -3) scale(.5625)" xlink:href="#b"/><use transform="translate(0 -2.5) scale(.5625)" xlink:href="#c"/><use transform="translate(0 -2.5) scale(.5625)" xlink:href="#d"/></svg>

<svg xmlns="http://www.w3.org/2000/svg" version="1.1" xmlns:xlink="http://www.w3.org/1999/xlink" preserveAspectRatio="none" x="0px" y="0px" width="72px" height="72px" viewBox="0 0 72 72">
<defs>
<g id="Layer0_0_FILL">
<path fill="#FCC21B" stroke="none" d="
M 127.7 93.35
Q 127.7 66.35 119.2 46.3 103.6 9.65 63.9 9.65 24.25 9.65 8.65 46.3 0.1 66.4 0.1 93.35 0.1 103.75 18.8 111.05 37.45 118.4 63.9 118.4 90.35 118.4 109 111.05 127.7 103.75 127.7 93.35 Z"/>
</g>

<g id="Layer0_1_FILL">
<path fill="#2F2F2F" stroke="none" d="
M 94.05 97.1
Q 91.3 87.95 82.8 82.05 74.3 76.1 63.95 76.1 53.65 76.1 45.15 82.05 36.65 87.95 33.9 97.1 33.55 98.4 34.15 99.55 34.8 100.75 36.05 101.15 37.35 101.55 38.55 100.9 39.75 100.25 40.1 98.95 42.25 91.85 49 87.2 55.75 82.6 63.95 82.6 72.2 82.6 78.95 87.2 85.7 91.85 87.85 98.95 88.15 100 89.05 100.65 89.9 101.25 90.95 101.25
L 91.9 101.15
Q 93.2 100.75 93.8 99.55 94.45 98.4 94.05 97.1 Z"/>
</g>

<g id="Layer0_2_MEMBER_0_FILL">
<path fill="#2F2F2F" stroke="none" d="
M 36.05 51.5
Q 33.7 54.4 33.75 58.4 33.8 62.4 36.2 65.25 38.65 68.05 42 68 45.35 68 47.7 65.15 50.05 62.25 50 58.25 49.95 54.25 47.55 51.4 45.15 48.55 41.8 48.6 38.45 48.65 36.05 51.5 Z"/>
</g>

<g id="Layer0_2_MEMBER_1_FILL">
<path fill="#2F2F2F" stroke="none" d="
M 94.2 58.3
Q 94.15 54.3 91.8 51.45 89.4 48.6 86.05 48.65 82.7 48.65 80.3 51.5 77.9 54.35 77.9 58.35 77.95 62.35 80.35 65.2 82.75 68.05 86.1 68 89.45 68 91.8 65.15 94.2 62.3 94.2 58.3 Z"/>
</g>
</defs>

<g id="Layer_1">
<g transform="matrix( 0.5625, 0, 0, 0.5625, 0,0) ">
<use xlink:href="#Layer0_0_FILL"/>
</g>

<g transform="matrix( 0.5625, 0, 0, 0.5625, 0,-3) ">
<use xlink:href="#Layer0_1_FILL"/>
</g>

<g transform="matrix( 0.5625, 0, 0, 0.5625, 0,-2.5) ">
<use xlink:href="#Layer0_2_MEMBER_0_FILL"/>
</g>

<g transform="matrix( 0.5625, 0, 0, 0.5625, 0,-2.5) ">
<use xlink:href="#Layer0_2_MEMBER_1_FILL"/>
</g>
</g>
</svg>
